static/assets/img/logos/brand/intercom.svg

<svg fill="none" height="36" viewBox="0 0 141 36" width="141" xmlns="http://www.w3.org/2000/svg"><path d="m47.8017 23.2v-10.4c0-.64.5209-1.16 1.162-1.16s1.162.52 1.162 1.16v10.4c0 .64-.5209 1.16-1.162 1.16-.601 0-1.162-.52-1.162-1.16zm13.3028.44-5.0487-8.04v7.6c0 .64-.5209 1.16-1.162 1.16s-1.1619-.52-1.1619-1.16v-10.08c0-.84.6811-1.56 1.5626-1.56h.0802c.5208 0 1.0417.28 1.3222.72l5.0086 7.92v-7.48c0-.64.5209-1.16 1.162-1.16s1.162.52 1.162 1.16v10.08c0 .84-.6812 1.56-1.5627 1.56-.561 0-1.0819-.24-1.3623-.72zm11.0188-9.84v9.52c0 .6-.4808 1.08-1.0819 1.08h-.1602c-.6011 0-1.0819-.48-1.0819-1.08v-9.52h-2.6846c-.601 0-1.0818-.48-1.0818-1.08s.4808-1.08 1.0818-1.08h7.7332c.6011 0 1.0819.48 1.0819 1.08s-.4808 1.08-1.0819 1.08zm5.6496 9.52v-10.68c0-.56.4809-1.04 1.0418-1.04h7.012c.561 0 1.0418.48 1.0418 1.04s-.4808 1.04-1.0418 1.04h-5.7298v2.96h4.9284c.561 0 1.0418.48 1.0418 1.04s-.4808 1.04-1.0418 1.04h-4.9284v3.48h5.7298c.561 0 1.0418.48 1.0418 1.04s-.4808 1.04-1.0418 1.04h-7.012c-.5609.08-1.0418-.36-1.0418-.96zm18.9124.36-1.8432-4.12h-2.8448v3.68c0 .64-.5209 1.16-1.162 1.16h-.0401c-.6411 0-1.162-.52-1.162-1.16v-10.44c0-.64.5209-1.16 1.162-1.16h4.2473c3.0452 0 4.4476 1.92 4.4476 3.96 0 1.72-.9216 3.04-2.324 3.56l1.6027 3.6c.3206.76-.2003 1.6-1.0417 1.6-.4408 0-.8816-.24-1.0418-.68zm-1.6028-10.04h-3.0452v3.8h3.0853c1.3223 0 2.0836-.68 2.0836-1.88-.0401-1-.8014-1.92-2.1237-1.92zm15.4665 9.44c-.962.96-2.284 1.52-3.646 1.52-1.363 0-2.645-.44-3.606-1.44-1.403-1.4-1.603-3.08-1.603-5.16s.2-3.8 1.603-5.16c.961-.96 2.243-1.44 3.606-1.44 1.362 0 2.684.52 3.646 1.48.321.36.601.72.801 1.16.361.76-.2 1.6-1.041 1.6-.481 0-.882-.28-1.082-.72-.08-.24-.241-.44-.401-.64-.401-.52-1.122-.8-1.923-.8-.722 0-1.443.32-1.964.84-.881.92-.881 2.48-.881 3.68 0 1.16 0 2.76.881 3.68.521.52 1.242.84 1.964.84.801 0 1.522-.28 1.923-.8.16-.2.321-.44.401-.68.16-.44.601-.72 1.082-.72.841 0 1.402.84 1.041 1.6-.2.44-.48.84-.801 1.16zm12.461.08c-.961.96-2.324 1.44-3.686 1.44s-2.685-.48-3.686-1.44c-1.403-1.4-1.603-3.08-1.603-5.16s.24-3.8 1.603-5.16c.961-.96 2.324-1.44 3.686-1.44s2.685.48 3.686 1.44c1.403 1.4 1.603 3.08 1.603 5.16.04 2.08-.2 3.8-1.603 5.16zm-1.643-8.8c-.52-.52-1.282-.84-2.003-.84s-1.523.32-2.003.84c-.882.92-.922 2.48-.922 3.68 0 1.16.04 2.72.922 3.64.521.52 1.282.84 2.003.84s1.523-.32 2.003-.84c.882-.92.922-2.48.922-3.64 0-1.2-.04-2.8-.922-3.68zm16.749 8.88v-7.96l-3.005 8.12c-.16.48-.641.8-1.162.8s-.962-.32-1.162-.8l-3.005-8.24v8.08c0 .64-.521 1.12-1.122 1.12-.641 0-1.122-.52-1.122-1.12v-9.88c0-.96.801-1.76 1.763-1.76h.16c.722 0 1.403.44 1.643 1.16l2.925 7.92 2.965-7.92c.241-.68.922-1.16 1.643-1.16.962 0 1.763.8 1.763 1.76v9.88c0 .64-.521 1.12-1.122 1.12-.681 0-1.162-.48-1.162-1.12zm-106.542-23.24h-27.04626c-2.52432 0-4.52774 2-4.52774 4.48v27c0 2.52 2.00342 4.52 4.52774 4.52h27.04626c2.4842 0 4.4876-2 4.4876-4.48v-27c0-2.52-2.0034-4.52-4.4876-4.52zm-8.735 6.6c0-.68.5209-1.2 1.2021-1.2s1.2021.52 1.2021 1.2v16.04c0 .68-.5209 1.2-1.2021 1.2s-1.2021-.52-1.2021-1.2zm-6.0102-.6c0-.68.5209-1.2 1.202-1.2.6812 0 1.2021.52 1.2021 1.2v17.4c0 .68-.5209 1.2-1.2021 1.2-.6811 0-1.202-.52-1.202-1.2zm-6.0103.6c0-.68.5209-1.2 1.202-1.2.6812 0 1.2021.52 1.2021 1.2v16.04c0 .68-.5209 1.2-1.2021 1.2-.6811 0-1.202-.52-1.202-1.2zm-6.01028 2.4c0-.68.52089-1.2 1.20205-1.2.68117 0 1.20206.52 1.20206 1.2v10.8c0 .68-.52089 1.2-1.20206 1.2-.68116 0-1.20205-.52-1.20205-1.2zm26.04448 18.32c-.2003.16-4.6479 3.88-12.8219 3.88-8.17395 0-12.62155-3.72-12.8219-3.88-.52089-.44-.56095-1.2-.1202-1.68.44075-.52 1.20205-.56 1.68288-.12.08013 0 4.04692 3.28 11.25922 3.28 7.2925 0 11.2192-3.28 11.2192-3.32.5209-.44 1.2822-.36 1.6829.12.4808.52.4007 1.28-.0802 1.72zm.4007-7.52c0 .68-.5209 1.2-1.202 1.2-.6812 0-1.2021-.52-1.2021-1.2v-10.8c0-.68.5209-1.2 1.2021-1.2.6811 0 1.202.52 1.202 1.2z" fill="#adb5bd"/></svg>

<svg width="141" height="36" viewBox="0 0 141 36" fill="none" xmlns="http://www.w3.org/2000/svg">
<path d="M47.8017 23.2V12.8C47.8017 12.16 48.3226 11.64 48.9637 11.64C49.6048 11.64 50.1257 12.16 50.1257 12.8V23.2C50.1257 23.84 49.6048 24.36 48.9637 24.36C48.3627 24.36 47.8017 23.84 47.8017 23.2ZM61.1045 23.64L56.0558 15.6V23.2C56.0558 23.84 55.5349 24.36 54.8938 24.36C54.2527 24.36 53.7319 23.84 53.7319 23.2V13.12C53.7319 12.28 54.413 11.56 55.2945 11.56H55.3747C55.8955 11.56 56.4164 11.84 56.6969 12.28L61.7055 20.2V12.72C61.7055 12.08 62.2264 11.56 62.8675 11.56C63.5086 11.56 64.0295 12.08 64.0295 12.72V22.8C64.0295 23.64 63.3483 24.36 62.4668 24.36C61.9058 24.36 61.3849 24.12 61.1045 23.64ZM72.1233 13.8V23.32C72.1233 23.92 71.6425 24.4 71.0414 24.4H70.8812C70.2801 24.4 69.7993 23.92 69.7993 23.32V13.8H67.1147C66.5137 13.8 66.0329 13.32 66.0329 12.72C66.0329 12.12 66.5137 11.64 67.1147 11.64H74.8479C75.449 11.64 75.9298 12.12 75.9298 12.72C75.9298 13.32 75.449 13.8 74.8479 13.8H72.1233ZM77.7729 23.32V12.64C77.7729 12.08 78.2538 11.6 78.8147 11.6H85.8267C86.3877 11.6 86.8685 12.08 86.8685 12.64C86.8685 13.2 86.3877 13.68 85.8267 13.68H80.0969V16.64H85.0253C85.5863 16.64 86.0671 17.12 86.0671 17.68C86.0671 18.24 85.5863 18.72 85.0253 18.72H80.0969V22.2H85.8267C86.3877 22.2 86.8685 22.68 86.8685 23.24C86.8685 23.8 86.3877 24.28 85.8267 24.28H78.8147C78.2538 24.36 77.7729 23.92 77.7729 23.32V23.32ZM96.6853 23.68L94.8421 19.56H91.9973V23.24C91.9973 23.88 91.4764 24.4 90.8353 24.4H90.7952C90.1541 24.4 89.6332 23.88 89.6332 23.24V12.8C89.6332 12.16 90.1541 11.64 90.7952 11.64H95.0425C98.0877 11.64 99.4901 13.56 99.4901 15.6C99.4901 17.32 98.5685 18.64 97.1661 19.16L98.7688 22.76C99.0894 23.52 98.5685 24.36 97.7271 24.36C97.2863 24.36 96.8455 24.12 96.6853 23.68V23.68ZM95.0825 13.64H92.0373V17.44H95.1226C96.4449 17.44 97.2062 16.76 97.2062 15.56C97.1661 14.56 96.4048 13.64 95.0825 13.64V13.64ZM110.549 23.08C109.587 24.04 108.265 24.6 106.903 24.6C105.54 24.6 104.258 24.16 103.297 23.16C101.894 21.76 101.694 20.08 101.694 18C101.694 15.92 101.894 14.2 103.297 12.84C104.258 11.88 105.54 11.4 106.903 11.4C108.265 11.4 109.587 11.92 110.549 12.88C110.87 13.24 111.15 13.6 111.35 14.04C111.711 14.8 111.15 15.64 110.309 15.64C109.828 15.64 109.427 15.36 109.227 14.92C109.147 14.68 108.986 14.48 108.826 14.28C108.425 13.76 107.704 13.48 106.903 13.48C106.181 13.48 105.46 13.8 104.939 14.32C104.058 15.24 104.058 16.8 104.058 18C104.058 19.16 104.058 20.76 104.939 21.68C105.46 22.2 106.181 22.52 106.903 22.52C107.704 22.52 108.425 22.24 108.826 21.72C108.986 21.52 109.147 21.28 109.227 21.04C109.387 20.6 109.828 20.32 110.309 20.32C111.15 20.32 111.711 21.16 111.35 21.92C111.15 22.36 110.87 22.76 110.549 23.08ZM123.01 23.16C122.049 24.12 120.686 24.6 119.324 24.6C117.962 24.6 116.639 24.12 115.638 23.16C114.235 21.76 114.035 20.08 114.035 18C114.035 15.92 114.275 14.2 115.638 12.84C116.599 11.88 117.962 11.4 119.324 11.4C120.686 11.4 122.009 11.88 123.01 12.84C124.413 14.24 124.613 15.92 124.613 18C124.653 20.08 124.413 21.8 123.01 23.16ZM121.367 14.36C120.847 13.84 120.085 13.52 119.364 13.52C118.643 13.52 117.841 13.84 117.361 14.36C116.479 15.28 116.439 16.84 116.439 18.04C116.439 19.2 116.479 20.76 117.361 21.68C117.882 22.2 118.643 22.52 119.364 22.52C120.085 22.52 120.887 22.2 121.367 21.68C122.249 20.76 122.289 19.2 122.289 18.04C122.289 16.84 122.249 15.24 121.367 14.36V14.36ZM138.116 23.24V15.28L135.111 23.4C134.951 23.88 134.47 24.2 133.949 24.2C133.428 24.2 132.987 23.88 132.787 23.4L129.782 15.16V23.24C129.782 23.88 129.261 24.36 128.66 24.36C128.019 24.36 127.538 23.84 127.538 23.24V13.36C127.538 12.4 128.339 11.6 129.301 11.6H129.461C130.183 11.6 130.864 12.04 131.104 12.76L134.029 20.68L136.994 12.76C137.235 12.08 137.916 11.6 138.637 11.6C139.599 11.6 140.4 12.4 140.4 13.36V23.24C140.4 23.88 139.879 24.36 139.278 24.36C138.597 24.36 138.116 23.88 138.116 23.24V23.24ZM31.574 0H4.52774C2.00342 0 0 2 0 4.48V31.48C0 34 2.00342 36 4.52774 36H31.574C34.0582 36 36.0616 34 36.0616 31.52V4.52C36.0616 2 34.0582 0 31.574 0ZM22.839 6.6C22.839 5.92 23.3599 5.4 24.0411 5.4C24.7223 5.4 25.2432 5.92 25.2432 6.6V22.64C25.2432 23.32 24.7223 23.84 24.0411 23.84C23.3599 23.84 22.839 23.32 22.839 22.64V6.6ZM16.8288 6C16.8288 5.32 17.3497 4.8 18.0308 4.8C18.712 4.8 19.2329 5.32 19.2329 6V23.4C19.2329 24.08 18.712 24.6 18.0308 24.6C17.3497 24.6 16.8288 24.08 16.8288 23.4V6ZM10.8185 6.6C10.8185 5.92 11.3394 5.4 12.0205 5.4C12.7017 5.4 13.2226 5.92 13.2226 6.6V22.64C13.2226 23.32 12.7017 23.84 12.0205 23.84C11.3394 23.84 10.8185 23.32 10.8185 22.64V6.6ZM4.80822 9C4.80822 8.32 5.32911 7.8 6.01027 7.8C6.69144 7.8 7.21233 8.32 7.21233 9V19.8C7.21233 20.48 6.69144 21 6.01027 21C5.32911 21 4.80822 20.48 4.80822 19.8V9ZM30.8527 27.32C30.6524 27.48 26.2048 31.2 18.0308 31.2C9.85685 31.2 5.40925 27.48 5.2089 27.32C4.68801 26.88 4.64795 26.12 5.0887 25.64C5.52945 25.12 6.29075 25.08 6.77158 25.52C6.85171 25.52 10.8185 28.8 18.0308 28.8C25.3233 28.8 29.25 25.52 29.25 25.48C29.7709 25.04 30.5322 25.12 30.9329 25.6C31.4137 26.12 31.3336 26.88 30.8527 27.32ZM31.2534 19.8C31.2534 20.48 30.7325 21 30.0514 21C29.3702 21 28.8493 20.48 28.8493 19.8V9C28.8493 8.32 29.3702 7.8 30.0514 7.8C30.7325 7.8 31.2534 8.32 31.2534 9V19.8Z" fill="#ADB5BD"/>
</svg>
